packages/tokens/icons/coveoIcon/size32Px.svg

<svg viewBox="0 0 32 32" fill="none" xmlns="http://www.w3.org/2000/svg" width="1em" height="1em"><path d="M25.9373 6.03926C23.5274 3.64331 20.4406 2.29727 17.2726 2.00114C16.8935 1.97422 16.6769 2.43187 16.9477 2.70108L22.0111 7.73528C22.0382 7.7622 22.0111 7.81605 21.9569 7.78912C20.4948 6.73921 18.8431 6.14695 17.1372 5.98541C16.8664 5.95849 16.7311 6.28154 16.9206 6.47L20.3865 9.91585C20.4135 9.94278 20.3865 9.99662 20.3323 9.9697C19.3846 9.3236 18.3015 8.9467 17.1914 8.83904C17.0018 8.81212 16.8935 9.0544 17.0289 9.16209L22.9046 15.0039C23.04 15.1385 23.2566 15.0308 23.2296 14.8424C23.1212 13.7386 22.7422 12.6618 22.0923 11.7196C22.0652 11.6926 22.1194 11.6388 22.1465 11.6657L25.4769 14.977C25.6665 15.1654 25.9914 15.0039 25.9643 14.7616C25.8289 13.0925 25.2333 11.4234 24.1772 9.99662C24.1502 9.9697 24.2043 9.91585 24.2314 9.94278L29.2948 14.977C29.5657 15.2462 30.0258 15.0308 29.9989 14.627C29.7008 11.5042 28.3471 8.43522 25.9373 6.03926ZM6.06271 6.03926C8.47256 3.64331 11.5593 2.29727 14.7273 2.00114C15.1064 1.97422 15.323 2.43187 15.0523 2.70108L9.98887 7.73528C9.96178 7.7622 9.98887 7.81605 10.043 7.78912C11.5052 6.73921 13.1569 6.14695 14.8627 5.98541C15.1335 5.95849 15.2689 6.28154 15.0793 6.47L11.6135 9.91585C11.5864 9.94278 11.6135 9.99662 11.6677 9.9697C12.6153 9.3236 13.6984 8.9467 14.8086 8.83904C14.9981 8.81212 15.1064 9.0544 14.9711 9.16209L9.09532 15.0308C8.95995 15.1654 8.74333 15.0577 8.77041 14.8693C8.8787 13.7655 9.2578 12.6887 9.90764 11.7465C9.93473 11.7196 9.88056 11.6657 9.85347 11.6926L6.52301 15.0039C6.33348 15.1923 6.00854 15.0308 6.03563 14.7885C6.19808 13.0925 6.79378 11.4234 7.84978 9.99662C7.87687 9.9697 7.8227 9.91585 7.79564 9.94278L2.70515 14.977C2.43438 15.2462 1.97407 15.0308 2.00114 14.627C2.29899 11.5042 3.65284 8.43522 6.06271 6.03926ZM6.06271 25.9607C8.47256 28.3566 11.5593 29.7027 14.7273 29.9989C15.1064 30.0258 15.323 29.5681 15.0523 29.2989L9.98887 24.2647C9.96178 24.2377 9.98887 24.1839 10.043 24.2108C11.5052 25.2607 13.1569 25.853 14.8627 26.0145C15.1335 26.0414 15.2689 25.7184 15.0793 25.5299L11.6135 22.0841C11.5864 22.0572 11.6135 22.0033 11.6677 22.0302C12.6153 22.6763 13.6984 23.0532 14.8086 23.1609C14.9981 23.1878 15.1064 22.9455 14.9711 22.8379L9.09532 16.9691C8.95995 16.8345 8.74333 16.9422 8.77041 17.1307C8.8787 18.2344 9.2578 19.3112 9.90764 20.2535C9.93473 20.2804 9.88056 20.3342 9.85347 20.3073L6.52301 16.996C6.33348 16.8076 6.00854 16.9691 6.03563 17.2114C6.19808 18.9074 6.79378 20.5765 7.84978 22.0033C7.87687 22.0302 7.8227 22.0841 7.79564 22.0572L2.70515 17.023C2.43438 16.7538 1.97407 16.9691 2.00114 17.3729C2.29899 20.4957 3.65284 23.5647 6.06271 25.9607ZM25.9373 25.9607C23.5274 28.3566 20.4406 29.7027 17.2726 29.9989C16.8935 30.0258 16.6769 29.5681 16.9477 29.2989L22.0111 24.2647C22.0382 24.2377 22.0111 24.1839 21.9569 24.2108C20.4948 25.2607 18.8431 25.853 17.1372 26.0145C16.8664 26.0414 16.7311 25.7184 16.9206 25.5299L20.3865 22.0841C20.4135 22.0571 20.3865 22.0033 20.3323 22.0302C19.3846 22.6763 18.3015 23.0532 17.1914 23.1609C17.0018 23.1878 16.8935 22.9455 17.0289 22.8379L22.9046 16.996C23.04 16.8614 23.2566 16.9691 23.2296 17.1576C23.1212 18.2613 22.7422 19.3382 22.0923 20.2804C22.0652 20.3073 22.1194 20.3611 22.1465 20.3342L25.4769 17.023C25.6665 16.8345 25.9914 16.996 25.9643 17.2383C25.8289 18.9074 25.2333 20.5765 24.1772 22.0302C24.1502 22.0571 24.2043 22.111 24.2314 22.0841L29.2948 17.0499C29.5657 16.7807 30.0258 16.996 29.9989 17.3999C29.7008 20.4957 28.3471 23.5647 25.9373 25.9607Z" fill="currentColor"/></svg>

<svg xmlns="http://www.w3.org/2000/svg" fill="none" viewBox="0 0 32 32" width="1em" height="1em"><path fill="currentColor" d="M25.937 6.04A14.113 14.113 0 0 0 17.273 2c-.38-.027-.596.43-.325.7l5.063 5.034c.027.027 0 .081-.054.054a9.792 9.792 0 0 0-4.82-1.804c-.27-.027-.406.297-.216.485l3.466 3.446c.026.027 0 .08-.055.054a6.719 6.719 0 0 0-3.14-1.131c-.19-.027-.299.215-.163.323l5.876 5.842a.19.19 0 0 0 .325-.162 6.632 6.632 0 0 0-1.138-3.122c-.027-.027.027-.081.055-.054l3.33 3.311c.19.188.514.027.487-.215a9.29 9.29 0 0 0-1.787-4.765c-.027-.027.027-.081.054-.054l5.064 5.034c.27.27.73.054.704-.35a13.964 13.964 0 0 0-4.062-8.588Zm-19.874 0A14.113 14.113 0 0 1 14.727 2c.38-.027.596.43.325.7L9.99 7.735c-.027.027 0 .081.054.054a9.793 9.793 0 0 1 4.82-1.804c.27-.027.406.297.216.485l-3.466 3.446c-.027.027 0 .08.055.054a6.718 6.718 0 0 1 3.14-1.131c.19-.027.298.215.163.323l-5.876 5.869a.19.19 0 0 1-.325-.162 6.632 6.632 0 0 1 1.138-3.123c.027-.026-.027-.08-.055-.053l-3.33 3.31c-.19.19-.514.028-.487-.214A9.574 9.574 0 0 1 7.85 9.997c.027-.027-.027-.081-.054-.054l-5.09 5.034c-.272.27-.732.054-.705-.35a13.962 13.962 0 0 1 4.062-8.588Zm0 19.92A14.114 14.114 0 0 0 14.727 30c.38.027.596-.43.325-.7L9.99 24.265c-.027-.027 0-.081.054-.054a9.793 9.793 0 0 0 4.82 1.804c.27.026.406-.297.216-.485l-3.466-3.446c-.027-.027 0-.08.055-.054a6.719 6.719 0 0 0 3.14 1.13c.19.028.298-.215.163-.322l-5.876-5.869a.19.19 0 0 0-.325.162 6.632 6.632 0 0 0 1.138 3.122c.027.027-.027.081-.055.054l-3.33-3.311c-.19-.188-.514-.027-.487.215a9.574 9.574 0 0 0 1.814 4.792c.027.027-.027.081-.054.054l-5.09-5.034c-.272-.27-.732-.054-.705.35a13.962 13.962 0 0 0 4.062 8.588Zm19.874 0A14.114 14.114 0 0 1 17.273 30c-.38.027-.596-.43-.325-.7l5.063-5.034c.027-.027 0-.081-.054-.054a9.792 9.792 0 0 1-4.82 1.804c-.27.026-.406-.297-.216-.485l3.466-3.446c.026-.027 0-.08-.055-.054a6.72 6.72 0 0 1-3.14 1.13c-.19.028-.299-.215-.163-.322l5.876-5.842a.19.19 0 0 1 .325.162 6.633 6.633 0 0 1-1.138 3.122c-.027.027.027.081.055.054l3.33-3.311c.19-.189.514-.027.487.215a9.469 9.469 0 0 1-1.787 4.792c-.027.027.027.081.054.054l5.064-5.034c.27-.27.73-.054.704.35a13.963 13.963 0 0 1-4.062 8.56Z"/></svg>
